icons/svg/sort-numeric.svg

﻿<?xml version="1.0" encoding="utf-8"?>
<!DOCTYPE svg PUBLIC "-//W3C//DTD SVG 1.1//EN" "http://www.w3.org/Graphics/SVG/1.1/DTD/svg11.dtd">
<svg xmlns="http://www.w3.org/2000/svg" xmlns:xlink="http://www.w3.org/1999/xlink" version="1.1" baseProfile="full" width="24" height="24" viewBox="0 0 24.00 24.00" enable-background="new 0 0 24.00 24.00" xml:space="preserve">
	<path fill="#000000" fill-opacity="1" stroke-linejoin="round" d="M 7.78259,7.00667C 9.07793,7.0432 10.0068,7.52854 10.5693,8.4627C 11.1318,9.39686 11.4064,10.5607 11.3933,11.9541C 11.3962,13.5048 11.0945,14.7278 10.4884,15.6229C 9.88229,16.5181 8.95462,16.9749 7.70541,16.9933C 6.45259,16.9612 5.5374,16.4822 4.95982,15.5562C 4.38224,14.6303 4.09386,13.4499 4.09467,12.0151C 4.09043,10.5524 4.38929,9.35938 4.99124,8.43602C 5.59319,7.51266 6.52364,7.03621 7.78259,7.00667 Z M 7.75172,8.63067C 7.31277,8.6278 6.96362,8.9041 6.70428,9.45957C 6.44493,10.015 6.3155,10.8669 6.316,12.0151C 6.31325,13.1488 6.43946,13.9918 6.69463,14.5441C 6.9498,15.0965 7.3073,15.3716 7.76716,15.3693C 8.69085,15.3693 9.15913,14.2411 9.172,11.9846C 9.16943,9.7689 8.696,8.65091 7.75172,8.63067 Z M 13.3341,16.9933L 13.3341,15.22L 13.7561,15.2423L 14.2986,15.22L 15.3355,15.0274C 15.6768,14.9225 15.9856,14.775 16.2619,14.5847C 16.5885,14.3503 16.8589,14.0766 17.0729,13.7637C 17.287,13.4508 17.4409,13.1233 17.5347,12.7813L 17.4882,12.7676C 17.0484,13.1863 16.3757,13.4002 15.4703,13.4093C 14.6211,13.4043 13.9122,13.1515 13.3436,12.6508C 12.7749,12.1501 12.4795,11.4315 12.4573,10.4949C 12.4741,9.50836 12.8132,8.68664 13.4744,8.02975C 14.1356,7.37287 15.0182,7.03184 16.1222,7.00667C 17.3681,7.03708 18.2864,7.4467 18.8772,8.23551C 19.468,9.02433 19.7609,10.0098 19.756,11.1921C 19.7515,12.1531 19.6064,13.008 19.3206,13.7567C 19.0349,14.5053 18.6354,15.1322 18.1222,15.6372C 17.6618,16.0551 17.111,16.378 16.4699,16.6059C 15.8288,16.8338 15.1196,16.9629 14.3424,16.9933L 13.3341,16.9933 Z M 16.0601,8.63067C 15.6485,8.63825 15.3155,8.79741 15.0612,9.10813C 14.8068,9.41886 14.6793,9.83566 14.6787,10.3585C 14.678,10.7955 14.7957,11.1643 15.0318,11.4649C 15.2679,11.7654 15.6262,11.922 16.1067,11.9347C 16.4259,11.9293 16.6956,11.8643 16.9158,11.7395C 17.136,11.6148 17.3009,11.4626 17.4106,11.283C 17.4907,11.1668 17.5321,10.9748 17.5347,10.7071C 17.5402,10.1631 17.4283,9.68629 17.199,9.27674C 16.9698,8.86719 16.5901,8.65183 16.0601,8.63067 Z M 9.25,5L 12.5,1.75L 15.75,5L 9.25,5 Z M 15.75,19L 12.5,22.25L 9.25001,19L 15.75,19 Z "/>
</svg>

<svg xmlns="http://www.w3.org/2000/svg" version="1.1" baseProfile="full" width="24" height="24" viewBox="0 0 24.00 24.00" xml:space="preserve"><path fill="#000" fill-opacity="1" stroke-linejoin="round" d="M7.783 7.007c1.295.036 2.224.522 2.786 1.456.562.934.836 2.098.823 3.49.003 1.552-.3 2.775-.905 3.67-.606.895-1.533 1.352-2.783 1.37-1.252-.032-2.168-.51-2.745-1.437-.578-.926-.866-2.106-.865-3.54-.005-1.464.294-2.657.896-3.58.603-.923 1.534-1.4 2.793-1.43zm-.03 1.624c-.44-.002-.79.274-1.05.83-.258.555-.388 1.407-.387 2.555-.003 1.134.123 1.977.38 2.53.254.552.61.827 1.07.824.925 0 1.393-1.13 1.406-3.385C9.17 9.77 8.696 8.65 7.752 8.63zm5.58 8.363V15.22l.423.022.543-.022 1.035-.193c.342-.104.65-.252.927-.442.326-.235.597-.508.81-.82.215-.314.37-.642.463-.984l-.047-.012c-.44.418-1.112.632-2.018.64-.85-.004-1.558-.256-2.126-.757-.57-.5-.864-1.22-.887-2.155.017-.987.356-1.808 1.017-2.465.662-.657 1.544-.998 2.648-1.023 1.246.03 2.164.44 2.755 1.23.59.787.884 1.773.88 2.955-.006.96-.15 1.816-.436 2.565-.285.748-.685 1.375-1.198 1.88-.46.418-1.01.74-1.652.97-.64.227-1.35.356-2.128.386h-1.008zM16.06 8.63c-.41.008-.744.167-1 .478-.253.31-.38.728-.38 1.25-.002.438.116.806.352 1.107.236.3.594.457 1.075.47.32-.006.59-.07.81-.196.22-.125.384-.277.494-.457.08-.116.122-.308.125-.576.005-.544-.107-1.02-.336-1.43-.23-.41-.61-.625-1.14-.646zM9.25 5l3.25-3.25L15.75 5h-6.5zm6.5 14l-3.25 3.25L9.25 19h6.5z"/></svg>
